unum/images-source/face_2.svg

<?xml version="1.0" encoding="UTF-8"?>
<svg width="90px" height="90px" viewBox="0 0 90 90" version="1.1" xmlns="http://www.w3.org/2000/svg" xmlns:xlink="http://www.w3.org/1999/xlink">
    <defs>
        <path d="M89.6720673,89.6075989 L0.0206168185,89.6075989 L0.0206168185,88.5111714 C0.0206168185,71.5099737 2.33169797,62.1157882 7.06967828,59.7902693 C8.29991023,59.1861332 9.88651352,58.2651378 11.7188422,57.1983114 C16.9625766,54.1458539 24.6896032,49.6494246 33.3284425,47.3765277 C27.6894217,41.9930492 23.8849766,32.5473336 23.8849766,23.5204603 C23.8849766,9.89514955 32.6992372,0.00648585819 44.8436491,0.00648585819 C56.9880609,0.00648585819 65.8023215,9.98724874 65.8023215,23.7386373 C65.8023215,32.6602956 62.1570683,41.7584413 56.5646314,47.1703855 C68.3040191,49.8917435 78.3052448,56.335422 82.7215957,59.1806563 C89.0407575,63.251689 89.6081481,85.9203146 89.6525919,88.4925329 L89.6720673,89.6075989 Z" id="path-1"></path>
    </defs>
    <g id="Pages" stroke="none" stroke-width="1" fill="none" fill-rule="evenodd">
        <g id="Web" transform="translate(-558.000000, -8597.000000)">
            <g id="Iconography" transform="translate(376.000000, 6650.000000)">
                <g id="Page-1" transform="translate(2.000000, 1947.000000)">
                    <g id="Group-15" transform="translate(180.000000, 0.000000)">
                        <mask id="mask-2" fill="white">
                            <use xlink:href="#path-1"></use>
                        </mask>
                        <g id="Clip-14"></g>
                        <polygon id="Fill-13" fill="#8394A1" mask="url(#mask-2)" points="-3.72465298 93.3852045 93.4173015 93.3852045 93.4173015 -3.77111361 -3.72465298 -3.77111361"></polygon>
                    </g>
                </g>
            </g>
        </g>
    </g>
</svg>

<svg width="90" height="90" viewBox="0 0 90 90" xmlns="http://www.w3.org/2000/svg" xmlns:xlink="http://www.w3.org/1999/xlink"><defs><path d="M89.672 89.608H.021V88.51c0-17.001 2.31-26.395 7.049-28.72 1.23-.605 2.817-1.526 4.649-2.593 5.244-3.052 12.97-7.549 21.61-9.821-5.64-5.384-9.444-14.83-9.444-23.857C23.885 9.895 32.699.006 44.844.006c12.144 0 20.958 9.981 20.958 23.733 0 8.921-3.645 18.02-9.237 23.431 11.739 2.722 21.74 9.165 26.157 12.01 6.319 4.072 6.886 26.74 6.93 29.313l.02 1.115z" id="a"/></defs><g fill="none" fill-rule="evenodd"><mask id="b" fill="#fff"><use xlink:href="#a"/></mask><path fill="#8394A1" mask="url(#b)" d="M-3.725 93.385h97.142V-3.77H-3.725z"/></g></svg>
